packages/foundations/assets/icons/functional/images/communication/speech_bubble_exclamation_mark_20_filled.svg

<svg width="20" height="20" viewBox="0 0 20 20" fill="none" xmlns="http://www.w3.org/2000/svg">
<g clip-path="url(#clip0_2204_2310)">
<path fill-rule="evenodd" clip-rule="evenodd" d="M15.5686 2C16.9412 2 18 3.1317 18 4.49756V12.4976C18 13.8634 16.8823 14.9951 15.4902 14.9951H6.62745C6.49021 14.9951 6.37255 15.0537 6.27457 15.1512L3.70595 17.7073C3.50989 17.9025 3.25489 18 3.01968 18C2.50989 18 2 17.5903 2 16.9854V4.49756C2 3.1317 3.19617 2 4.58829 2H15.5686ZM10.0053 10C9.41314 10 8.9 10.489 8.9 11.1151C8.9 11.7412 9.41314 12.25 10.0053 12.25C10.6369 12.25 11.15 11.7412 11.15 11.1151C11.15 10.489 10.6369 10 10.0053 10ZM11 4H9V8.99513H11V4Z" fill="#1A1C1F"/>
</g>
<defs>
<clipPath id="clip0_2204_2310">
<rect width="20" height="20" fill="white"/>
</clipPath>
</defs>
</svg>

<svg xmlns="http://www.w3.org/2000/svg" width="20" height="20" fill="none"><g clip-path="url(#a)"><path fill="#1A1C1F" fill-rule="evenodd" d="M15.569 2C16.94 2 18 3.132 18 4.498v8a2.51 2.51 0 0 1-2.51 2.497H6.627a.5.5 0 0 0-.352.156l-2.57 2.556a.99.99 0 0 1-.685.293C2.51 18 2 17.59 2 16.985V4.498C2 3.132 3.196 2 4.588 2zm-5.564 8c-.592 0-1.105.489-1.105 1.115s.513 1.135 1.105 1.135a1.14 1.14 0 0 0 1.145-1.135c0-.626-.513-1.115-1.145-1.115M11 4H9v4.995h2z" clip-rule="evenodd"/></g><defs><clipPath id="a"><path fill="#fff" d="M0 0h20v20H0z"/></clipPath></defs></svg>
